64x64/apps/indicator-virtual-box.svg

<svg height="64" width="64" xmlns="http://www.w3.org/2000/svg"><rect height="56" opacity=".2" rx="2.8" width="56" x="4" y="5"/><rect fill="#1159d4" height="56" rx="2.8" width="56" x="4" y="4"/><path d="m8.2 27h9.8l5.6 15.78 7-20.58 4.9 11.2 4.9-12.6 5.6 16.2h8.4" fill="none" stroke="#1159d4" stroke-linecap="square" stroke-width="6"/><path d="m12.2 11c-1.22 0-2.2.98-2.2 2.2v11.8h10.117l3.422 9.645 6.711-19.73 5.086 11.628 5.23-13.445 7.57 21.902h5.864v-21.8c0-1.22-.98-2.2-2.2-2.2zm28.034 19.5-4.57 11.758-4.71-10.77-7.294 21.43-7.777-21.918h-5.883v21.8c0 1.22.98 2.2 2.2 2.2h39.6c1.22 0 2.2-.98 2.2-2.2v-11.8h-10.137z" opacity=".2"/><path d="m12.2 10c-1.22 0-2.2.98-2.2 2.2v11.8h10.117l3.422 9.645 6.711-19.73 5.086 11.628 5.23-13.445 7.57 21.902h5.864v-21.8c0-1.22-.98-2.2-2.2-2.2zm28.034 19.5-4.57 11.758-4.71-10.77-7.294 21.43-7.777-21.918h-5.883v21.8c0 1.22.98 2.2 2.2 2.2h39.6c1.22 0 2.2-.98 2.2-2.2v-11.8h-10.137z" fill="#39dcff"/><g fill="#f4f4f7"><path d="m6.8 4c-1.55 0-2.8 1.25-2.8 2.8v1c0-1.55 1.25-2.8 2.8-2.8h50.4c1.55 0 2.8 1.25 2.8 2.8v-1c0-1.55-1.25-2.8-2.8-2.8z" opacity=".1"/><path d="m12.2 10c-1.22 0-2.2.98-2.2 2.2v1c0-1.22.98-2.2 2.2-2.2h39.6c1.22 0 2.2.98 2.2 2.2v-1c0-1.22-.98-2.2-2.2-2.2zm28.034 19.5-4.57 11.758-4.71-10.77-7.294 21.43-7.777-21.918h-5.883v1h5.883l7.777 21.918 7.293-21.43 4.711 10.77 4.57-11.758 3.63 10.5h10.136v-1h-10.137z" opacity=".2"/></g></svg>

<svg height="64" width="64" xmlns="http://www.w3.org/2000/svg">
    <rect height="56" opacity=".2" rx="2.8" width="56" x="4" y="5"/>
    <rect fill="#1159d4" height="56" rx="2.8" width="56" x="4" y="4"/>
    <path d="M8.2 27H18l5.6 15.78 7-20.58 4.9 11.2 4.9-12.6L46 37h8.4" fill="none" stroke="#1159d4" stroke-linecap="square" stroke-width="6"/>
    <path d="M12.2 11c-1.22 0-2.2.98-2.2 2.2V25h10.117l3.422 9.645 6.711-19.73 5.086 11.628 5.23-13.445L48.136 35H54V13.2c0-1.22-.98-2.2-2.2-2.2zm28.034 19.5-4.57 11.758-4.71-10.77-7.294 21.43L15.883 31H10v21.8c0 1.22.98 2.2 2.2 2.2h39.6c1.22 0 2.2-.98 2.2-2.2V41H43.863z" opacity=".2"/>
    <path d="M12.2 10c-1.22 0-2.2.98-2.2 2.2V24h10.117l3.422 9.645 6.711-19.73 5.086 11.628 5.23-13.445L48.136 34H54V12.2c0-1.22-.98-2.2-2.2-2.2zm28.034 19.5-4.57 11.758-4.71-10.77-7.294 21.43L15.883 30H10v21.8c0 1.22.98 2.2 2.2 2.2h39.6c1.22 0 2.2-.98 2.2-2.2V40H43.863z" fill="#39dcff"/>
    <g fill="#f4f4f7">
        <path d="M6.8 4C5.25 4 4 5.25 4 6.8v1C4 6.25 5.25 5 6.8 5h50.4C58.75 5 60 6.25 60 7.8v-1C60 5.25 58.75 4 57.2 4z" opacity=".1"/>
        <path d="M12.2 10c-1.22 0-2.2.98-2.2 2.2v1c0-1.22.98-2.2 2.2-2.2h39.6c1.22 0 2.2.98 2.2 2.2v-1c0-1.22-.98-2.2-2.2-2.2zm28.034 19.5-4.57 11.758-4.71-10.77-7.294 21.43L15.883 30H10v1h5.883l7.777 21.918 7.293-21.43 4.711 10.77 4.57-11.758 3.63 10.5H54v-1H43.863z" opacity=".2"/>
    </g>
</svg>
